src/images/crypto-icon-svg/pura.svg

<svg xmlns="http://www.w3.org/2000/svg" width="32" height="32" viewBox="0 0 32 32">
  <g fill="none" fill-rule="evenodd">
    <circle cx="16" cy="16" r="16" fill="#333"/>
    <path fill="#FFF" fill-rule="nonzero" d="M11.191913,8 L18.9564516,8 C21.1036629,8.12663356 23.4671433,9.00915839 24.4161895,11.06 C25.6033747,13.671495 25.013427,17.3428019 22.3385479,18.8329901 C19.8725579,20.2436435 16.9228198,19.6866336 14.2149108,19.8023366 C14.1416511,21.1370099 14.5154196,22.6886932 13.5849133,23.8171981 C13.2108748,24.3561683 11.4960218,25 11.4960218,25 C11.4960218,25 11.3379824,23.5514898 11.2800227,20.2906534 C11.2433928,19.39 11.3899122,18.3808416 12.1630991,17.7949503 C13.0681354,17.017287 14.3506302,17.2596236 15.4498858,17.2198118 C17.1097491,17.1764454 18.853942,17.4296236 20.4295656,16.7893466 C22.7416562,15.8453267 22.8259859,11.9859801 20.4955353,11.0130789 C18.117475,10.0907423 15.4902056,10.9299007 13.0461755,10.4199007 C11.93576,10.1086932 11.436982,9.01635651 11.191913,8 Z M7,12.4308416 C9.02994178,12.4670099 11.0636635,12.358505 13.0899153,12.481495 C14.5629394,12.5936435 15.5302555,13.9283168 15.6841548,15.2919603 C13.6395431,15.2811187 11.5912414,15.3570988 9.54617969,15.2666336 C8.28978478,15.1942969 7.36278853,14.1742969 7,13.0493466 L7,12.4308416 Z"/>
  </g>
</svg>

<svg xmlns="http://www.w3.org/2000/svg" width="32" height="32"><g fill="none" fill-rule="evenodd"><circle cx="16" cy="16" r="16" fill="#333"/><path fill="#FFF" fill-rule="nonzero" d="M11.192 8h7.764c2.148.127 4.511 1.01 5.46 3.06 1.187 2.611.597 6.283-2.077 7.773-2.466 1.41-5.416.854-8.124.97-.073 1.334.3 2.886-.63 4.014-.374.54-2.089 1.183-2.089 1.183s-.158-1.449-.216-4.71c-.037-.9.11-1.91.883-2.495.905-.778 2.188-.535 3.287-.575 1.66-.044 3.404.21 4.98-.43 2.312-.945 2.396-4.804.066-5.777-2.379-.922-5.006-.083-7.45-.593-1.11-.311-1.609-1.404-1.854-2.42zM7 12.43c2.03.037 4.064-.071 6.09.051 1.473.113 2.44 1.447 2.594 2.811-2.044-.01-4.093.065-6.138-.025C8.29 15.194 7.363 14.174 7 13.049v-.618z"/></g></svg>
